X: 41
M:6/8
L:1/8
K:D
|:f/2g/2|aba f2 f|gfg e2 g|fdd ged|cde A2 f/2g/2|
aba f2 f|gfg e2 g|faf gec|d3 d2:||

